flaticon/security/padlock-1.svg

<svg xmlns="http://www.w3.org/2000/svg" width="32" height="32" viewBox="0 0 24 24">
    <path d="M 18 7.835938 L 18 5.601562 C 18 2.511719 15.308594 0 12 0 C 8.691406 0 6 2.511719 6 5.601562 L 6 7.835938 C 4.042969 9.523438 2.800781 12.019531 2.800781 14.800781 C 2.800781 19.875 6.925781 24 12 24 C 17.074219 24 21.199219 19.875 21.199219 14.800781 C 21.199219 12.019531 19.957031 9.523438 18 7.835938 Z M 6.800781 7.210938 L 6.800781 5.601562 C 6.800781 2.910156 9.085938 0.800781 12 0.800781 C 14.914062 0.800781 17.199219 2.910156 17.199219 5.601562 L 17.199219 7.210938 C 17.164062 7.1875 17.128906 7.167969 17.097656 7.144531 C 16.96875 7.058594 16.835938 6.976562 16.703125 6.894531 C 16.636719 6.859375 16.574219 6.820312 16.511719 6.785156 C 16.472656 6.765625 16.4375 6.742188 16.398438 6.722656 L 16.398438 5.601562 C 16.398438 3.355469 14.46875 1.601562 12 1.601562 C 9.53125 1.601562 7.601562 3.355469 7.601562 5.601562 L 7.601562 6.722656 C 7.5625 6.742188 7.527344 6.765625 7.488281 6.785156 C 7.425781 6.820312 7.363281 6.859375 7.296875 6.894531 C 7.164062 6.976562 7.03125 7.058594 6.902344 7.144531 C 6.871094 7.167969 6.835938 7.1875 6.800781 7.210938 Z M 11.359375 5.625 C 11.324219 5.625 11.289062 5.628906 11.253906 5.632812 C 10.355469 5.703125 9.488281 5.90625 8.652344 6.234375 C 8.632812 6.242188 8.613281 6.25 8.59375 6.257812 C 8.554688 6.273438 8.519531 6.285156 8.480469 6.300781 C 8.460938 6.308594 8.441406 6.316406 8.417969 6.324219 C 8.414062 6.328125 8.40625 6.332031 8.398438 6.332031 L 8.398438 5.601562 C 8.398438 3.804688 9.980469 2.398438 12 2.398438 C 14.019531 2.398438 15.601562 3.804688 15.601562 5.601562 L 15.601562 6.332031 C 15.59375 6.332031 15.585938 6.328125 15.582031 6.324219 C 15.558594 6.316406 15.539062 6.308594 15.519531 6.300781 C 15.480469 6.285156 15.445312 6.269531 15.40625 6.257812 C 15.386719 6.25 15.367188 6.242188 15.347656 6.234375 C 14.511719 5.90625 13.644531 5.703125 12.746094 5.632812 C 12.710938 5.628906 12.675781 5.625 12.640625 5.625 C 12.425781 5.609375 12.214844 5.601562 12 5.601562 C 11.785156 5.601562 11.574219 5.609375 11.359375 5.625 Z M 12 23.199219 C 7.367188 23.199219 3.601562 19.429688 3.601562 14.800781 C 3.601562 11.90625 5.070312 9.351562 7.300781 7.839844 C 7.316406 7.832031 7.332031 7.824219 7.34375 7.8125 C 7.539062 7.683594 7.738281 7.5625 7.945312 7.449219 C 8.019531 7.40625 8.097656 7.371094 8.171875 7.332031 C 8.320312 7.257812 8.46875 7.183594 8.621094 7.117188 C 8.722656 7.070312 8.828125 7.027344 8.9375 6.988281 C 9.066406 6.9375 9.195312 6.886719 9.328125 6.84375 C 9.445312 6.804688 9.566406 6.765625 9.6875 6.730469 C 9.816406 6.695312 9.945312 6.660156 10.078125 6.628906 C 10.199219 6.601562 10.320312 6.574219 10.4375 6.550781 C 10.589844 6.523438 10.746094 6.5 10.898438 6.480469 C 11.003906 6.46875 11.105469 6.449219 11.207031 6.441406 C 11.46875 6.414062 11.734375 6.398438 12 6.398438 C 12.265625 6.398438 12.53125 6.414062 12.792969 6.441406 C 12.894531 6.449219 12.996094 6.46875 13.097656 6.480469 C 13.253906 6.5 13.410156 6.523438 13.558594 6.550781 C 13.679688 6.574219 13.800781 6.601562 13.921875 6.628906 C 14.054688 6.660156 14.183594 6.695312 14.3125 6.730469 C 14.433594 6.765625 14.554688 6.804688 14.671875 6.84375 C 14.804688 6.886719 14.933594 6.9375 15.0625 6.988281 C 15.171875 7.027344 15.277344 7.070312 15.378906 7.117188 C 15.53125 7.183594 15.679688 7.253906 15.824219 7.332031 C 15.902344 7.371094 15.980469 7.40625 16.054688 7.449219 C 16.261719 7.5625 16.460938 7.683594 16.652344 7.8125 C 16.667969 7.824219 16.683594 7.832031 16.699219 7.839844 C 18.929688 9.351562 20.398438 11.90625 20.398438 14.800781 C 20.398438 19.429688 16.632812 23.199219 12 23.199219 Z M 12 23.199219"/>
    <path d="M12 10.398438C9.574219 10.398438 7.601562 12.375 7.601562 14.800781 7.601562 17.226562 9.574219 19.199219 12 19.199219 14.425781 19.199219 16.398438 17.226562 16.398438 14.800781 16.398438 12.375 14.425781 10.398438 12 10.398438zM12 18.398438C10.015625 18.398438 8.398438 16.785156 8.398438 14.800781 8.398438 12.816406 10.015625 11.199219 12 11.199219 13.984375 11.199219 15.601562 12.816406 15.601562 14.800781 15.601562 16.785156 13.984375 18.398438 12 18.398438zM12 9.199219C12.222656 9.199219 12.398438 9.019531 12.398438 8.800781L12.398438 7.199219C12.398438 6.980469 12.222656 6.800781 12 6.800781 11.777344 6.800781 11.601562 6.980469 11.601562 7.199219L11.601562 8.800781C11.601562 9.019531 11.777344 9.199219 12 9.199219zM12 20.398438C11.777344 20.398438 11.601562 20.578125 11.601562 20.800781L11.601562 22.398438C11.601562 22.621094 11.777344 22.800781 12 22.800781 12.222656 22.800781 12.398438 22.621094 12.398438 22.398438L12.398438 20.800781C12.398438 20.578125 12.222656 20.398438 12 20.398438zM19.601562 14.398438L18 14.398438C17.777344 14.398438 17.601562 14.578125 17.601562 14.800781 17.601562 15.019531 17.777344 15.199219 18 15.199219L19.601562 15.199219C19.820312 15.199219 20 15.019531 20 14.800781 20 14.578125 19.820312 14.398438 19.601562 14.398438zM6 15.199219C6.222656 15.199219 6.398438 15.019531 6.398438 14.800781 6.398438 14.578125 6.222656 14.398438 6 14.398438L4.398438 14.398438C4.179688 14.398438 4 14.578125 4 14.800781 4 15.019531 4.179688 15.199219 4.398438 15.199219zM15.960938 10.839844C16.039062 10.917969 16.140625 10.957031 16.242188 10.957031 16.34375 10.957031 16.445312 10.917969 16.523438 10.839844L17.65625 9.710938C17.8125 9.554688 17.8125 9.300781 17.65625 9.144531 17.5 8.988281 17.246094 8.988281 17.089844 9.144531L15.960938 10.273438C15.804688 10.429688 15.804688 10.683594 15.960938 10.839844zM8.039062 18.757812C7.882812 18.601562 7.632812 18.601562 7.476562 18.757812L6.34375 19.890625C6.1875 20.046875 6.1875 20.300781 6.34375 20.457031 6.421875 20.535156 6.523438 20.574219 6.625 20.574219 6.726562 20.574219 6.832031 20.535156 6.910156 20.457031L8.039062 19.324219C8.195312 19.167969 8.195312 18.914062 8.039062 18.757812zM16.523438 18.757812C16.367188 18.601562 16.117188 18.601562 15.960938 18.757812 15.804688 18.914062 15.804688 19.167969 15.960938 19.324219L17.089844 20.457031C17.167969 20.535156 17.273438 20.574219 17.375 20.574219 17.476562 20.574219 17.578125 20.535156 17.65625 20.457031 17.8125 20.300781 17.8125 20.046875 17.65625 19.890625zM7.476562 10.839844C7.554688 10.917969 7.65625 10.957031 7.757812 10.957031 7.859375 10.957031 7.960938 10.917969 8.039062 10.839844 8.195312 10.683594 8.195312 10.429688 8.039062 10.273438L6.910156 9.144531C6.753906 8.988281 6.5 8.988281 6.34375 9.144531 6.1875 9.300781 6.1875 9.554688 6.34375 9.710938zM14.800781 9.949219C14.863281 9.988281 14.933594 10.003906 15 10.003906 15.136719 10.003906 15.273438 9.933594 15.347656 9.804688L16.144531 8.417969C16.257812 8.226562 16.191406 7.980469 16 7.871094 15.808594 7.761719 15.5625 7.828125 15.453125 8.019531L14.652344 9.402344C14.542969 9.59375 14.609375 9.839844 14.800781 9.949219zM9.199219 19.648438C9.007812 19.539062 8.765625 19.605469 8.652344 19.796875L7.855469 21.179688C7.742188 21.375 7.808594 21.617188 8 21.726562 8.0625 21.765625 8.132812 21.78125 8.199219 21.78125 8.339844 21.78125 8.472656 21.710938 8.546875 21.582031L9.347656 20.195312C9.457031 20.003906 9.390625 19.761719 9.199219 19.648438zM18.78125 18.253906L17.394531 17.453125C17.203125 17.34375 16.960938 17.410156 16.851562 17.601562 16.738281 17.792969 16.804688 18.035156 16.996094 18.144531L18.382812 18.945312C18.445312 18.984375 18.515625 19 18.582031 19 18.71875 19 18.855469 18.929688 18.929688 18.800781 19.039062 18.609375 18.972656 18.363281 18.78125 18.253906zM5.21875 11.347656L6.605469 12.144531C6.667969 12.183594 6.734375 12.199219 6.804688 12.199219 6.941406 12.199219 7.074219 12.128906 7.148438 12 7.261719 11.808594 7.195312 11.5625 7.003906 11.453125L5.617188 10.652344C5.425781 10.542969 5.183594 10.609375 5.070312 10.800781 4.960938 10.992188 5.027344 11.234375 5.21875 11.347656zM13.449219 9.390625C13.484375 9.398438 13.519531 9.40625 13.554688 9.40625 13.730469 9.40625 13.890625 9.285156 13.9375 9.109375L14.351562 7.5625C14.410156 7.347656 14.285156 7.128906 14.070312 7.074219 13.855469 7.015625 13.636719 7.140625 13.582031 7.355469L13.167969 8.902344C13.109375 9.113281 13.234375 9.332031 13.449219 9.390625zM10.550781 20.210938C10.335938 20.152344 10.117188 20.277344 10.058594 20.492188L9.644531 22.039062C9.589844 22.25 9.714844 22.46875 9.929688 22.527344 9.964844 22.535156 10 22.539062 10.03125 22.539062 10.210938 22.539062 10.371094 22.421875 10.417969 22.246094L10.832031 20.699219C10.890625 20.484375 10.765625 20.265625 10.550781 20.210938zM19.445312 16.378906L17.898438 15.964844C17.6875 15.910156 17.464844 16.035156 17.410156 16.25 17.351562 16.460938 17.476562 16.683594 17.691406 16.738281L19.238281 17.152344C19.273438 17.164062 19.308594 17.167969 19.339844 17.167969 19.515625 17.167969 19.679688 17.050781 19.726562 16.871094 19.785156 16.65625 19.65625 16.4375 19.445312 16.378906zM4.554688 13.21875L6.101562 13.632812C6.136719 13.644531 6.171875 13.648438 6.203125 13.648438 6.382812 13.648438 6.542969 13.53125 6.589844 13.351562 6.648438 13.136719 6.523438 12.917969 6.308594 12.859375L4.761719 12.445312C4.550781 12.386719 4.328125 12.515625 4.273438 12.730469 4.214844 12.941406 4.34375 13.160156 4.554688 13.21875zM10.0625 9.109375C10.109375 9.285156 10.269531 9.40625 10.445312 9.40625 10.480469 9.40625 10.515625 9.398438 10.550781 9.390625 10.765625 9.332031 10.890625 9.113281 10.832031 8.902344L10.417969 7.355469C10.363281 7.140625 10.140625 7.015625 9.929688 7.074219 9.714844 7.128906 9.589844 7.347656 9.644531 7.5625zM13.9375 20.492188C13.882812 20.277344 13.664062 20.152344 13.449219 20.210938 13.234375 20.265625 13.109375 20.484375 13.167969 20.699219L13.582031 22.246094C13.628906 22.421875 13.789062 22.539062 13.964844 22.539062 14 22.539062 14.035156 22.535156 14.070312 22.527344 14.285156 22.46875 14.410156 22.25 14.351562 22.039062zM17.410156 13.351562C17.457031 13.53125 17.617188 13.648438 17.796875 13.648438 17.828125 13.648438 17.863281 13.644531 17.898438 13.632812L19.445312 13.21875C19.65625 13.160156 19.785156 12.941406 19.726562 12.730469 19.671875 12.515625 19.449219 12.386719 19.238281 12.445312L17.691406 12.859375C17.476562 12.917969 17.351562 13.136719 17.410156 13.351562zM6.589844 16.25C6.535156 16.035156 6.3125 15.910156 6.101562 15.964844L4.554688 16.378906C4.339844 16.4375 4.214844 16.65625 4.273438 16.871094 4.320312 17.050781 4.480469 17.167969 4.660156 17.167969 4.691406 17.167969 4.726562 17.164062 4.761719 17.152344L6.308594 16.738281C6.523438 16.683594 6.648438 16.460938 6.589844 16.25zM8.652344 9.804688C8.726562 9.933594 8.863281 10.003906 9 10.003906 9.066406 10.003906 9.136719 9.988281 9.199219 9.949219 9.390625 9.839844 9.457031 9.59375 9.347656 9.402344L8.546875 8.019531C8.4375 7.828125 8.191406 7.761719 8 7.871094 7.808594 7.980469 7.742188 8.226562 7.855469 8.417969zM15.347656 19.796875C15.234375 19.605469 14.992188 19.539062 14.800781 19.648438 14.609375 19.761719 14.542969 20.003906 14.652344 20.195312L15.453125 21.582031C15.527344 21.710938 15.660156 21.78125 15.800781 21.78125 15.867188 21.78125 15.9375 21.765625 16 21.726562 16.191406 21.617188 16.257812 21.371094 16.144531 21.179688zM16.847656 12C16.925781 12.128906 17.058594 12.199219 17.195312 12.199219 17.265625 12.199219 17.332031 12.183594 17.394531 12.144531L18.78125 11.347656C18.972656 11.234375 19.039062 10.992188 18.929688 10.800781 18.816406 10.609375 18.574219 10.542969 18.382812 10.652344L16.996094 11.453125C16.804688 11.5625 16.738281 11.808594 16.847656 12zM7.152344 17.601562C7.039062 17.410156 6.796875 17.34375 6.605469 17.453125L5.21875 18.253906C5.027344 18.363281 4.960938 18.609375 5.070312 18.800781 5.144531 18.929688 5.28125 19 5.417969 19 5.488281 19 5.554688 18.984375 5.617188 18.945312L7.003906 18.144531C7.195312 18.035156 7.261719 17.792969 7.152344 17.601562zM7.152344 17.601562"/>
    <path d="M 13.316406 12.917969 L 12.117188 14.117188 C 11.960938 14.273438 11.960938 14.527344 12.117188 14.683594 C 12.195312 14.761719 12.296875 14.800781 12.398438 14.800781 C 12.503906 14.800781 12.605469 14.761719 12.683594 14.683594 L 13.882812 13.484375 C 14.039062 13.328125 14.039062 13.074219 13.882812 12.917969 C 13.726562 12.761719 13.472656 12.761719 13.316406 12.917969 Z M 13.316406 12.917969"/>
</svg>

<svg xmlns="http://www.w3.org/2000/svg" width="32" height="32" viewBox="0 0 24 24">
    <path d="M18 7.836V5.602C18 2.512 15.309 0 12 0S6 2.512 6 5.602v2.234A9.178 9.178 0 0 0 2.8 14.8C2.8 19.875 6.927 24 12 24c5.074 0 9.2-4.125 9.2-9.2A9.178 9.178 0 0 0 18 7.837zM6.8 7.21V5.6c0-2.69 2.286-4.8 5.2-4.8s5.2 2.11 5.2 4.8v1.61c-.036-.024-.071-.043-.102-.066a13.49 13.49 0 0 0-.395-.25c-.066-.036-.129-.075-.191-.11-.04-.02-.075-.043-.114-.062V5.602c0-2.247-1.93-4-4.398-4-2.469 0-4.398 1.753-4.398 4v1.12c-.04.02-.075.044-.114.063-.062.035-.125.074-.191.11a13.49 13.49 0 0 0-.395.25c-.03.023-.066.043-.101.066zm4.56-1.586a9.01 9.01 0 0 0-2.766.633L8.48 6.3a1.081 1.081 0 0 1-.082.031v-.73c0-1.797 1.582-3.204 3.602-3.204 2.02 0 3.602 1.407 3.602 3.204v.73a1.081 1.081 0 0 1-.082-.031c-.04-.016-.075-.031-.114-.043l-.058-.024a9.01 9.01 0 0 0-2.707-.609 8.776 8.776 0 0 0-1.282 0zM12 23.199c-4.633 0-8.398-3.77-8.398-8.398A8.4 8.4 0 0 1 7.3 7.84c.015-.008.031-.016.043-.027.195-.13.394-.25.601-.364.075-.043.153-.078.227-.117.148-.074.297-.148.45-.215.1-.047.206-.09.316-.129.128-.05.257-.101.39-.144a9.66 9.66 0 0 1 .36-.114 11.398 11.398 0 0 1 .75-.18c.152-.027.308-.05.46-.07.106-.011.207-.03.309-.039.262-.027.527-.043.793-.043s.531.016.793.043c.102.008.203.028.305.04.156.019.312.042.46.07.122.023.243.05.364.078.133.031.262.066.39.101.122.036.243.075.36.114.133.043.262.093.39.144.11.04.215.082.317.13.152.066.3.136.445.214.078.04.156.074.23.117a7.6 7.6 0 0 1 .598.364c.016.011.032.019.047.027a8.4 8.4 0 0 1 3.7 6.96c0 4.63-3.766 8.4-8.399 8.4zm0 0"/>
    <path d="M12 10.398a4.406 4.406 0 0 0-4.398 4.403A4.403 4.403 0 0 0 12 19.199a4.403 4.403 0 0 0 4.398-4.398A4.406 4.406 0 0 0 12 10.398zm0 8a3.604 3.604 0 0 1-3.602-3.597A3.608 3.608 0 0 1 12 11.199a3.608 3.608 0 0 1 3.602 3.602A3.604 3.604 0 0 1 12 18.398zm0 0M12 9.2c.223 0 .398-.18.398-.4V7.2a.398.398 0 1 0-.796 0v1.6c0 .22.175.4.398.4zm0 0M12 20.398a.398.398 0 0 0-.398.403v1.597a.398.398 0 1 0 .796 0v-1.597a.398.398 0 0 0-.398-.403zm0 0M19.602 14.398H18a.398.398 0 0 0-.398.403c0 .219.175.398.398.398h1.602a.4.4 0 0 0 0-.8zm0 0M6 15.2c.223 0 .398-.18.398-.4A.398.398 0 0 0 6 14.399H4.398a.401.401 0 0 0 0 .801zm0 0M15.96 10.84a.396.396 0 0 0 .563 0l1.133-1.13a.4.4 0 0 0-.566-.565l-1.13 1.128a.4.4 0 0 0 0 .567zm0 0M8.04 18.758a.396.396 0 0 0-.563 0L6.344 19.89a.4.4 0 0 0 .566.566l1.13-1.133a.4.4 0 0 0 0-.566zm0 0M16.523 18.758a.396.396 0 0 0-.562 0 .4.4 0 0 0 0 .566l1.129 1.133a.405.405 0 0 0 .285.117.4.4 0 0 0 .281-.684zm0 0M7.477 10.84a.396.396 0 0 0 .562 0 .4.4 0 0 0 0-.567L6.91 9.145a.4.4 0 0 0-.566.566zm0 0M14.8 9.95a.401.401 0 0 0 .547-.145l.798-1.387A.397.397 0 0 0 16 7.871a.402.402 0 0 0-.547.149l-.8 1.382a.402.402 0 0 0 .148.547zm0 0M9.2 19.648a.403.403 0 0 0-.548.149l-.797 1.383a.396.396 0 0 0 .145.547c.063.039.133.054.2.054.14 0 .273-.07.347-.199l.8-1.387a.403.403 0 0 0-.148-.547zm0 0M18.781 18.254l-1.386-.8a.397.397 0 0 0-.543.148.393.393 0 0 0 .144.543l1.387.8a.401.401 0 0 0 .547-.145.402.402 0 0 0-.149-.546zm0 0M5.219 11.348l1.386.797A.395.395 0 0 0 7.148 12a.397.397 0 0 0-.144-.547l-1.387-.8a.403.403 0 0 0-.547.148.403.403 0 0 0 .149.547zm0 0M13.45 9.39c.034.008.07.016.105.016a.4.4 0 0 0 .383-.297l.414-1.546a.393.393 0 0 0-.282-.489.393.393 0 0 0-.488.281l-.414 1.547c-.059.211.066.43.281.489zm0 0M10.55 20.21a.4.4 0 0 0-.491.282l-.414 1.547c-.055.211.07.43.285.488a.397.397 0 0 0 .488-.281l.414-1.547a.393.393 0 0 0-.281-.488zm0 0M19.445 16.379l-1.547-.414a.4.4 0 0 0-.488.285.395.395 0 0 0 .281.488l1.547.414c.035.012.07.016.102.016a.402.402 0 0 0 .105-.79zm0 0M4.555 13.219l1.547.414a.397.397 0 0 0 .488-.281.4.4 0 0 0-.281-.493l-1.547-.414a.397.397 0 0 0-.489.285.4.4 0 0 0 .282.489zm0 0M10.063 9.11a.4.4 0 0 0 .382.296c.035 0 .07-.008.106-.015a.397.397 0 0 0 .281-.489l-.414-1.547a.395.395 0 0 0-.488-.28.399.399 0 0 0-.285.487zm0 0M13.938 20.492a.393.393 0 0 0-.489-.281.393.393 0 0 0-.281.488l.414 1.547a.396.396 0 0 0 .383.293.397.397 0 0 0 .387-.5zm0 0M17.41 13.352a.397.397 0 0 0 .488.28l1.547-.413a.4.4 0 0 0 .282-.489.397.397 0 0 0-.489-.285l-1.547.414a.4.4 0 0 0-.28.493zm0 0M6.59 16.25a.4.4 0 0 0-.488-.285l-1.547.414a.4.4 0 0 0-.282.492.397.397 0 0 0 .489.281l1.547-.414a.395.395 0 0 0 .28-.488zm0 0M8.652 9.805a.401.401 0 0 0 .696-.403L8.547 8.02A.402.402 0 0 0 8 7.87a.397.397 0 0 0-.145.547zm0 0M15.348 19.797a.403.403 0 0 0-.547-.149.403.403 0 0 0-.149.547l.801 1.387a.397.397 0 0 0 .547.145.397.397 0 0 0 .145-.547zm0 0M16.848 12c.078.129.21.2.347.2.07 0 .137-.016.2-.055l1.386-.797a.403.403 0 0 0 .149-.547.403.403 0 0 0-.547-.149l-1.387.801a.402.402 0 0 0-.148.547zm0 0M7.152 17.602a.403.403 0 0 0-.547-.149l-1.386.8a.402.402 0 0 0-.149.548.401.401 0 0 0 .547.144l1.387-.8a.397.397 0 0 0 .148-.543zm0 0"/>
    <path d="M13.316 12.918l-1.199 1.2a.4.4 0 0 0 .567.566l1.199-1.2a.4.4 0 0 0-.567-.566zm0 0"/>
</svg>
